16/actions/stroke-cap-square.svg

<svg xmlns="http://www.w3.org/2000/svg" viewBox="0 0 16 16">
  <defs id="defs3051">
    <style type="text/css" id="current-color-scheme">
      .ColorScheme-Text {
        color:#FFFFFF;
      }
      </style>
  </defs>
 <path style="fill:currentColor;fill-opacity:1;stroke:none" 
     d="m3 2v12h4v-8h2v8h4v-12h-9zm1 1h8v10h-2v-8h-4v8h-2z"
     class="ColorScheme-Text"
     />
</svg>

<svg xmlns="http://www.w3.org/2000/svg" width="16" height="16" viewBox="0 0 16 16">
 <defs>
  <style id="current-color-scheme" type="text/css">
   .ColorScheme-Text { color:#565656; } .ColorScheme-Highlight { color:#5294e2; }
  </style>
 </defs>
 <path style="fill:currentColor" class="ColorScheme-Text" d="M 3 2 L 3 14 L 7 14 L 7 6 L 9 6 L 9 14 L 13 14 L 13 2 L 3 2 z M 4 3 L 12 3 L 12 13 L 10 13 L 10 5 L 6 5 L 6 13 L 4 13 L 4 3 z"/>
</svg>
